src/24/actions/align-horizontal-right-out.svg

<svg xmlns="http://www.w3.org/2000/svg" viewBox="0 0 24 24"><path d="M4 4v6h7V4H4zm9 0v16h1V4h-1zM5 5h5v4H5V5zm-1 9v6h6v-6H4zm12 0v6h4v-6h-4zM5 15h4v4H5v-4z" fill="currentColor" color="#5d656b"/></svg>

<svg xmlns="http://www.w3.org/2000/svg" viewBox="0 0 24 24">
  <defs id="defs3051">
    <style type="text/css" id="current-color-scheme">
      .ColorScheme-Text {
        color:#5d656b;
      }
      </style>
  </defs>
 <path style="fill:currentColor;fill-opacity:1;stroke:none" 
     d="M 4 4 L 4 9 L 4 10 L 10 10 L 11 10 L 11 4 L 5 4 L 4 4 z M 13 4 L 13 20 L 14 20 L 14 4 L 13 4 z M 5 5 L 10 5 L 10 9 L 5 9 L 5 5 z M 4 14 L 4 15 L 4 19 L 4 20 L 5 20 L 9 20 L 10 20 L 10 19 L 10 14 L 4 14 z M 16 14 L 16 19 L 16 20 L 19 20 L 20 20 L 20 14 L 17 14 L 16 14 z M 5 15 L 9 15 L 9 19 L 5 19 L 5 15 z "
     class="ColorScheme-Text"
     />
</svg>
